X:3734
L:1/8
Q:1/4=50
M:3/8
K:F
 c | f>ga/g/ | (fc)c |{e} dd/e/f/e/ | c2 a/c'/ | d'/b/ gg | b/a/ ff | e/d/e/f/g/e/ | f2 :: c/B/ | 
 A/c/f/c/f | e/f/g/e/c | g/a/b/a/b/g/ | aff | A/c/f/c/f | e/f/g/e/c | f/e/f/a/g/e/ | f2 :: F | 
 F2 F | A<fe |{e} d2 c | A2 A | B2 c | dBG | FEd | cBG | f2 e | c<fd | c2 f | e<cc | d2 f | fed | 
 c2 B | cBA | F2 G | A<fe | edc |{B} A2 A | B2 c | dBG | F{GF}EG | F2 ||

